styles/1/Numix-Circle/48x48/apps/accessibility-directory.svg

<?xml version="1.0" encoding="UTF-8" standalone="no"?>
<svg
   xmlns:dc="http://purl.org/dc/elements/1.1/"
   xmlns:cc="http://creativecommons.org/ns#"
   xmlns:rdf="http://www.w3.org/1999/02/22-rdf-syntax-ns#"
   xmlns:svg="http://www.w3.org/2000/svg"
   xmlns="http://www.w3.org/2000/svg"
   xmlns:sodipodi="http://sodipodi.sourceforge.net/DTD/sodipodi-0.dtd"
   xmlns:inkscape="http://www.inkscape.org/namespaces/inkscape"
   viewBox="0 0 48 48"
   id="svg2"
   version="1.1"
   inkscape:version="0.91 r"
   width="100%"
   height="100%"
   sodipodi:docname="accessibility-directory.svg">
  <metadata
     id="metadata85">
    <rdf:RDF>
      <cc:Work
         rdf:about="">
        <dc:format>image/svg+xml</dc:format>
        <dc:type
           rdf:resource="http://purl.org/dc/dcmitype/StillImage" />
      </cc:Work>
    </rdf:RDF>
  </metadata>
  <sodipodi:namedview
     pagecolor="#ffffff"
     bordercolor="#666666"
     borderopacity="1"
     objecttolerance="10"
     gridtolerance="10"
     guidetolerance="10"
     inkscape:pageopacity="0"
     inkscape:pageshadow="2"
     inkscape:window-width="1280"
     inkscape:window-height="998"
     id="namedview83"
     showgrid="false"
     inkscape:zoom="9.8333334"
     inkscape:cx="32.408621"
     inkscape:cy="23.36554"
     inkscape:window-x="0"
     inkscape:window-y="0"
     inkscape:window-maximized="1"
     inkscape:current-layer="svg2" />
  <defs
     id="defs4">
    <linearGradient
       id="linearGradient3764"
       x1="1"
       x2="47"
       gradientUnits="userSpaceOnUse"
       gradientTransform="matrix(0,-1,1,0,-1.5e-6,47.999998)">
      <stop
         stop-color="#3e6d94"
         stop-opacity="1"
         id="stop7" />
      <stop
         offset="1"
         stop-color="#4476a2"
         stop-opacity="1"
         id="stop9" />
    </linearGradient>
  </defs>
  <g
     id="g21">
    <path
       d="m 36.31 5 c 5.859 4.062 9.688 10.831 9.688 18.5 c 0 12.426 -10.07 22.5 -22.5 22.5 c -7.669 0 -14.438 -3.828 -18.5 -9.688 c 1.037 1.822 2.306 3.499 3.781 4.969 c 4.085 3.712 9.514 5.969 15.469 5.969 c 12.703 0 23 -10.298 23 -23 c 0 -5.954 -2.256 -11.384 -5.969 -15.469 c -1.469 -1.475 -3.147 -2.744 -4.969 -3.781 z m 4.969 3.781 c 3.854 4.113 6.219 9.637 6.219 15.719 c 0 12.703 -10.297 23 -23 23 c -6.081 0 -11.606 -2.364 -15.719 -6.219 c 4.16 4.144 9.883 6.719 16.219 6.719 c 12.703 0 23 -10.298 23 -23 c 0 -6.335 -2.575 -12.06 -6.719 -16.219 z"
       opacity="0.05"
       id="path23" />
    <path
       d="m 41.28 8.781 c 3.712 4.085 5.969 9.514 5.969 15.469 c 0 12.703 -10.297 23 -23 23 c -5.954 0 -11.384 -2.256 -15.469 -5.969 c 4.113 3.854 9.637 6.219 15.719 6.219 c 12.703 0 23 -10.298 23 -23 c 0 -6.081 -2.364 -11.606 -6.219 -15.719 z"
       opacity="0.1"
       id="path25" />
    <path
       d="m 31.25 2.375 c 8.615 3.154 14.75 11.417 14.75 21.13 c 0 12.426 -10.07 22.5 -22.5 22.5 c -9.708 0 -17.971 -6.135 -21.12 -14.75 a 23 23 0 0 0 44.875 -7 a 23 23 0 0 0 -16 -21.875 z"
       opacity="0.2"
       id="path27" />
  </g>
  <g
     id="g29">
    <path
       d="m 24 1 c 12.703 0 23 10.297 23 23 c 0 12.703 -10.297 23 -23 23 -12.703 0 -23 -10.297 -23 -23 0 -12.703 10.297 -23 23 -23 z"
       fill="url(#linearGradient3764)"
       fill-opacity="1"
       id="path31" />
  </g>
  <g
     id="g33" />
  <path
     style="opacity:0.1;fill:#000000;fill-opacity:1;fill-rule:nonzero;stroke:none"
     d="M 13.8125 16 C 13.371574 16.05099 12.997 16.464595 13 16.9375 L 13 34.03125 C 13.000058 34.53115 13.434329 35 13.90625 35 L 36 35 C 36.472925 35 37 34.4999 37 34 L 37 19 C 37 18.5001 36.472925 18 36 18 L 27 18 L 27 17 C 26.9987 16.35213 26.550909 16 26 16 L 13.8125 16 z M 25.0625 21 C 25.8475 21 26.5 21.617 26.5 22.375 C 26.5 23.137 25.8475 23.75 25.0625 23.75 C 24.2775 23.75 23.65625 23.137 23.65625 22.375 C 23.65625 21.617 24.2775 21 25.0625 21 z M 19.96875 23.8125 C 20.045 23.82175 20.125 23.86125 20.1875 23.90625 L 25 24.65625 L 29.84375 23.90625 C 29.89475 23.87125 29.96525 23.85175 30.03125 23.84375 C 30.21825 23.82375 30.40275 23.92575 30.46875 24.09375 C 30.53575 24.26175 30.4645 24.42625 30.3125 24.53125 L 26.46875 25.90625 L 26.53125 28.40625 L 27.84375 32.40625 C 27.96175 32.59325 27.8865 32.8325 27.6875 32.9375 C 27.4885 33.0465 27.238 33.0005 27.125 32.8125 L 25 28.5 L 22.84375 32.8125 C 22.71075 32.9965 22.445 33.02725 22.25 32.90625 C 22.058 32.78525 22.02725 32.555 22.15625 32.375 L 23.5 28.375 L 23.5 25.71875 L 19.71875 24.5625 C 19.58275 24.4955 19.5 24.36675 19.5 24.21875 C 19.504 24.07475 19.57775 23.90975 19.71875 23.84375 C 19.78925 23.81275 19.8925 23.80325 19.96875 23.8125 z "
     id="path45" />
  <g
     id="g79">
    <path
       d="m 40.03 7.531 c 3.712 4.084 5.969 9.514 5.969 15.469 0 12.703 -10.297 23 -23 23 c -5.954 0 -11.384 -2.256 -15.469 -5.969 4.178 4.291 10.01 6.969 16.469 6.969 c 12.703 0 23 -10.298 23 -23 0 -6.462 -2.677 -12.291 -6.969 -16.469 z"
       opacity="0.1"
       id="path81" />
  </g>
  <path
     style="fill:#ececec;fill-opacity:1;fill-rule:nonzero;stroke:none"
     d="M 12.8125 15 C 12.371574 15.05096 11.997 15.496148 12 15.96875 L 12 33.03125 C 12.000058 33.53083 12.434329 34 12.90625 34 L 35 34 C 35.472922 34 36 33.499579 36 33 L 36 18.03125 C 36 17.531671 35.472922 17.03125 35 17.03125 L 26 17.03125 L 26 16 C 25.9987 15.352546 25.550907 15 25 15 L 12.8125 15 z M 24.0625 20 C 24.8475 20 25.5 20.617 25.5 21.375 C 25.5 22.137 24.8475 22.75 24.0625 22.75 C 23.2775 22.75 22.65625 22.137 22.65625 21.375 C 22.65625 20.617 23.2775 20 24.0625 20 z M 18.96875 22.8125 C 19.045 22.82175 19.125 22.86125 19.1875 22.90625 L 24 23.65625 L 28.84375 22.90625 C 28.89475 22.87125 28.96525 22.85175 29.03125 22.84375 C 29.21825 22.82375 29.40275 22.8945 29.46875 23.0625 C 29.53575 23.2305 29.4645 23.42625 29.3125 23.53125 L 25.46875 24.90625 L 25.53125 27.40625 L 26.84375 31.40625 C 26.96175 31.59325 26.8865 31.8325 26.6875 31.9375 C 26.4885 32.0465 26.238 32.0005 26.125 31.8125 L 24 27.5 L 21.84375 31.8125 C 21.71075 31.9965 21.445 32.02725 21.25 31.90625 C 21.058 31.78525 21.02725 31.555 21.15625 31.375 L 22.5 27.375 L 22.5 24.71875 L 18.71875 23.5625 C 18.58275 23.4955 18.5 23.36675 18.5 23.21875 C 18.504 23.07475 18.57775 22.90975 18.71875 22.84375 C 18.78925 22.81275 18.8925 22.80325 18.96875 22.8125 z "
     id="path55" />
</svg>

<svg xmlns="http://www.w3.org/2000/svg" viewBox="0 0 48 48">
 <defs>
  <linearGradient id="linearGradient3764" x1="1" x2="47" gradientUnits="userSpaceOnUse" gradientTransform="matrix(0,-1,1,0,-1.5e-6,47.999998)">
   <stop style="stop-color:#3e6d94;stop-opacity:1"/>
   <stop offset="1" style="stop-color:#4476a2;stop-opacity:1"/>
  </linearGradient>
 </defs>
 <g>
  <path d="m 36.31 5 c 5.859 4.062 9.688 10.831 9.688 18.5 c 0 12.426 -10.07 22.5 -22.5 22.5 c -7.669 0 -14.438 -3.828 -18.5 -9.688 c 1.037 1.822 2.306 3.499 3.781 4.969 c 4.085 3.712 9.514 5.969 15.469 5.969 c 12.703 0 23 -10.298 23 -23 c 0 -5.954 -2.256 -11.384 -5.969 -15.469 c -1.469 -1.475 -3.147 -2.744 -4.969 -3.781 z m 4.969 3.781 c 3.854 4.113 6.219 9.637 6.219 15.719 c 0 12.703 -10.297 23 -23 23 c -6.081 0 -11.606 -2.364 -15.719 -6.219 c 4.16 4.144 9.883 6.719 16.219 6.719 c 12.703 0 23 -10.298 23 -23 c 0 -6.335 -2.575 -12.06 -6.719 -16.219 z" style="opacity:0.05"/>
  <path d="m 41.28 8.781 c 3.712 4.085 5.969 9.514 5.969 15.469 c 0 12.703 -10.297 23 -23 23 c -5.954 0 -11.384 -2.256 -15.469 -5.969 c 4.113 3.854 9.637 6.219 15.719 6.219 c 12.703 0 23 -10.298 23 -23 c 0 -6.081 -2.364 -11.606 -6.219 -15.719 z" style="opacity:0.1"/>
  <path d="m 31.25 2.375 c 8.615 3.154 14.75 11.417 14.75 21.13 c 0 12.426 -10.07 22.5 -22.5 22.5 c -9.708 0 -17.971 -6.135 -21.12 -14.75 a 23 23 0 0 0 44.875 -7 a 23 23 0 0 0 -16 -21.875 z" style="opacity:0.2"/>
 </g>
 <g>
  <path d="m 24 1 c 12.703 0 23 10.297 23 23 c 0 12.703 -10.297 23 -23 23 -12.703 0 -23 -10.297 -23 -23 0 -12.703 10.297 -23 23 -23 z" style="fill:url(#linearGradient3764);fill-opacity:1"/>
 </g>
 <path d="m 13.813 16 c -0.441 0.051 -0.816 0.465 -0.813 0.938 l 0 17.09 c 0 0.5 0.434 0.969 0.906 0.969 l 22.09 0 c 0.473 0 1 -0.5 1 -1 l 0 -15 c 0 -0.5 -0.527 -1 -1 -1 l -9 0 l 0 -1 c 0 -0.648 -0.449 -1 -1 -1 l -12.188 0 z m 11.25 5 c 0.785 0 1.438 0.617 1.438 1.375 c 0 0.762 -0.652 1.375 -1.438 1.375 c -0.785 0 -1.406 -0.613 -1.406 -1.375 c 0 -0.758 0.621 -1.375 1.406 -1.375 z m -5.094 2.813 c 0.076 0.009 0.156 0.049 0.219 0.094 l 4.813 0.75 l 4.844 -0.75 c 0.051 -0.035 0.122 -0.055 0.188 -0.063 c 0.187 -0.02 0.372 0.082 0.438 0.25 c 0.067 0.168 -0.004 0.332 -0.156 0.438 l -3.844 1.375 l 0.063 2.5 l 1.313 4 c 0.118 0.187 0.043 0.426 -0.156 0.531 c -0.199 0.109 -0.45 0.063 -0.563 -0.125 l -2.125 -4.313 l -2.156 4.313 c -0.133 0.184 -0.399 0.215 -0.594 0.094 c -0.192 -0.121 -0.223 -0.351 -0.094 -0.531 l 1.344 -4 l 0 -2.656 l -3.781 -1.156 c -0.136 -0.067 -0.219 -0.196 -0.219 -0.344 c 0.004 -0.144 0.078 -0.309 0.219 -0.375 c 0.07 -0.031 0.174 -0.041 0.25 -0.031 z" style="fill:#000;opacity:0.1;fill-opacity:1;stroke:none;fill-rule:nonzero"/>
 <g>
  <path d="m 40.03 7.531 c 3.712 4.084 5.969 9.514 5.969 15.469 0 12.703 -10.297 23 -23 23 c -5.954 0 -11.384 -2.256 -15.469 -5.969 4.178 4.291 10.01 6.969 16.469 6.969 c 12.703 0 23 -10.298 23 -23 0 -6.462 -2.677 -12.291 -6.969 -16.469 z" style="opacity:0.1"/>
 </g>
 <path d="m 12.813 15 c -0.441 0.051 -0.816 0.496 -0.813 0.969 l 0 17.06 c 0 0.5 0.434 0.969 0.906 0.969 l 22.09 0 c 0.473 0 1 -0.5 1 -1 l 0 -14.969 c 0 -0.5 -0.527 -1 -1 -1 l -9 0 l 0 -1.031 c 0 -0.647 -0.449 -1 -1 -1 l -12.188 0 z m 11.25 5 c 0.785 0 1.438 0.617 1.438 1.375 c 0 0.762 -0.652 1.375 -1.438 1.375 c -0.785 0 -1.406 -0.613 -1.406 -1.375 c 0 -0.758 0.621 -1.375 1.406 -1.375 z m -5.094 2.813 c 0.076 0.009 0.156 0.049 0.219 0.094 l 4.813 0.75 l 4.844 -0.75 c 0.051 -0.035 0.122 -0.055 0.188 -0.063 c 0.187 -0.02 0.372 0.051 0.438 0.219 c 0.067 0.168 -0.004 0.364 -0.156 0.469 l -3.844 1.375 l 0.063 2.5 l 1.313 4 c 0.118 0.187 0.043 0.426 -0.156 0.531 c -0.199 0.109 -0.45 0.063 -0.563 -0.125 l -2.125 -4.313 l -2.156 4.313 c -0.133 0.184 -0.399 0.215 -0.594 0.094 c -0.192 -0.121 -0.223 -0.351 -0.094 -0.531 l 1.344 -4 l 0 -2.656 l -3.781 -1.156 c -0.136 -0.067 -0.219 -0.196 -0.219 -0.344 c 0.004 -0.144 0.078 -0.309 0.219 -0.375 c 0.07 -0.031 0.174 -0.041 0.25 -0.031 z" style="fill:#ececec;fill-opacity:1;stroke:none;fill-rule:nonzero"/>
</svg>
